lib/components/NewIcon/assets/Search.svg

<svg xmlns="http://www.w3.org/2000/svg"  viewBox="0 0 24 24" fill="white" >    <path d="M 9 2 C 5.1458514 2 2 5.1458514 2 9 C 2 12.854149 5.1458514 16 9 16 C 10.747998 16 12.345009 15.348024 13.574219 14.28125 L 14 14.707031 L 14 16 L 20 22 L 22 20 L 16 14 L 14.707031 14 L 14.28125 13.574219 C 15.348024 12.345009 16 10.747998 16 9 C 16 5.1458514 12.854149 2 9 2 z M 9 4 C 11.773268 4 14 6.2267316 14 9 C 14 11.773268 11.773268 14 9 14 C 6.2267316 14 4 11.773268 4 9 C 4 6.2267316 6.2267316 4 9 4 z"/></svg>

<svg xmlns="http://www.w3.org/2000/svg" fill="#fff" viewBox="0 0 24 24"><path d="M9 2C5.146 2 2 5.146 2 9s3.146 7 7 7a6.96 6.96 0 0 0 4.574-1.719l.426.426V16l6 6 2-2-6-6h-1.293l-.426-.426A6.96 6.96 0 0 0 16 9c0-3.854-3.146-7-7-7m0 2c2.773 0 5 2.227 5 5s-2.227 5-5 5-5-2.227-5-5 2.227-5 5-5"/></svg>
